X: 38084
T: Splendid Isolation
R: reel
M: 4/4
K: Adorian
GAAG AedB|A2 BA GABd|eBdB ABcd|eaag a3b|
c'3b ge e2|g2 fa gedB|A2 BA GABd|eBdB AEGA|
A2 BG AedB|A2 BA GABd|e2 dB ABcd|eaag aeab|
c'2 ba ge e2|g2 fa bgdB|A2 BA GABd|eBdB A4||
a2 ba ge e2|aged Bded|BA A2 Bded|BA A2 GDEG|
G2 BGAG BG|G2 BA GABd|ea a2 gaba|gedB Adeg|
a2 ba ge e2|aged Bded|BA A2 Bded|BA A2 GDEG|
EAGE AedB|A2 BA GABd|ea a2 gaba|gedB A4||

